packages/radix-icons/outline/15/image.svg

<svg width="15" height="15" fill="none" xmlns="http://www.w3.org/2000/svg">
  <path
    fill-rule="evenodd"
    clip-rule="evenodd"
    d="M12 3H3L3 11.8876L9.19477 6.16934C9.34744 6.02841 9.57674 6.01033 9.74962 6.12558L12 7.62583V3ZM12 8.7075L9.54502 7.07085L4.20511 12H12V8.7075ZM3 2C2.44772 2 2 2.44771 2 3V12C2 12.5523 2.44771 13 3 13H12C12.5523 13 13 12.5523 13 12V3C13 2.44772 12.5523 2 12 2H3ZM5.50003 6.02604C5.79054 6.02604 6.02604 5.79054 6.02604 5.50003C6.02604 5.20953 5.79054 4.97402 5.50003 4.97402C5.20953 4.97402 4.97402 5.20953 4.97402 5.50003C4.97402 5.79054 5.20953 6.02604 5.50003 6.02604ZM5.50003 6.87604C6.25998 6.87604 6.87604 6.25998 6.87604 5.50003C6.87604 4.74008 6.25998 4.12402 5.50003 4.12402C4.74008 4.12402 4.12402 4.74008 4.12402 5.50003C4.12402 6.25998 4.74008 6.87604 5.50003 6.87604Z"
    fill="currentColor"
  />
</svg>

<svg width="15" height="15" fill="none" xmlns="http://www.w3.org/2000/svg">
  <path
    fill-rule="evenodd"
    clip-rule="evenodd"
    d="M12 3H3v8.888l6.195-5.719a.45.45 0 01.555-.043l2.25 1.5V3zm0 5.707L9.545 7.071 4.205 12H12V8.707zM3 2a1 1 0 00-1 1v9a1 1 0 001 1h9a1 1 0 001-1V3a1 1 0 00-1-1H3zm2.5 4.026a.526.526 0 100-1.052.526.526 0 000 1.052zm0 .85a1.376 1.376 0 100-2.752 1.376 1.376 0 000 2.752z"
    fill="currentColor"
  />
</svg>
